X:142
T:O kunne du mit hjerte se
R:Sonderh\o{}ning
O:Denmark
M:2/4
L:1/8
A:Fan\o{}
K:ADor
A |\
d>e ff | ed AA/B/ | cB/A/ GB | A2 z :: d |\
ee/f/ ge | aa/a/ ef | gf/e/ dd | e2 zd |\
e>f ff | ed AA/B/ | cB/A/ GB | A2z :|**
